SVG_Azure_Grouped/Application/Web PubSub Service.svg

<?xml version="1.0" encoding="UTF-8" standalone="no"?>
<!-- Generated by Microsoft Visio, SVG Export Web PubSub Service.svg Page-1 -->

<svg
   xmlns:dc="http://purl.org/dc/elements/1.1/"
   xmlns:cc="http://creativecommons.org/ns#"
   xmlns:rdf="http://www.w3.org/1999/02/22-rdf-syntax-ns#"
   xmlns:svg="http://www.w3.org/2000/svg"
   xmlns="http://www.w3.org/2000/svg"
   xmlns:xlink="http://www.w3.org/1999/xlink"
   xmlns:sodipodi="http://sodipodi.sourceforge.net/DTD/sodipodi-0.dtd"
   xmlns:inkscape="http://www.inkscape.org/namespaces/inkscape"
   width="0.78735983in"
   height="0.78735983in"
   viewBox="0 0 56.689996 56.689996"
   xml:space="preserve"
   class="st7"
   version="1.1"
   id="svg93"
   sodipodi:docname="Web PubSub Service.svg"
   style="font-size:12px;overflow:visible;color-interpolation-filters:sRGB;fill:none;fill-rule:evenodd;stroke-linecap:square;stroke-miterlimit:3"
   inkscape:version="0.92.5 (2060ec1f9f, 2020-04-08)"><metadata
   id="metadata97"><rdf:RDF><cc:Work
       rdf:about=""><dc:format>image/svg+xml</dc:format><dc:type
         rdf:resource="http://purl.org/dc/dcmitype/StillImage" /></cc:Work></rdf:RDF></metadata><sodipodi:namedview
   pagecolor="#ffffff"
   bordercolor="#666666"
   borderopacity="1"
   objecttolerance="10"
   gridtolerance="10"
   guidetolerance="10"
   inkscape:pageopacity="0"
   inkscape:pageshadow="2"
   inkscape:window-width="640"
   inkscape:window-height="480"
   id="namedview95"
   showgrid="false"
   inkscape:zoom="1.3753683"
   inkscape:cx="37.795277"
   inkscape:cy="37.791269"
   inkscape:window-x="0"
   inkscape:window-y="0"
   inkscape:window-maximized="0"
   inkscape:current-layer="svg93" />
	<style
   type="text/css"
   id="style2">
	<![CDATA[
		.st1 {fill:#0078d7;stroke:none;stroke-linecap:butt;stroke-width:36}
		.st2 {fill:#ffffff;fill-opacity:0.8;stroke:none;stroke-linecap:butt;stroke-width:36}
		.st3 {fill:#ffffff;stroke:none;stroke-linecap:butt;stroke-width:36}
		.st4 {fill:url(#grad0-16);stroke:none;stroke-linecap:butt;stroke-width:36}
		.st5 {fill:url(#grad0-20);stroke:none;stroke-linecap:butt;stroke-width:36}
		.st6 {fill:url(#grad0-24);stroke:none;stroke-linecap:butt;stroke-width:36}
		.st7 {fill:none;fill-rule:evenodd;font-size:12px;overflow:visible;stroke-linecap:square;stroke-miterlimit:3}
	]]>
	</style>

	<defs
   id="Patterns_And_Gradients">
		<linearGradient
   id="grad0-16"
   x1="0"
   y1="109.79518"
   x2="18.89764"
   y2="109.79518"
   gradientUnits="userSpaceOnUse">
			<stop
   offset="0"
   stop-color="#cccccc"
   stop-opacity="1"
   id="stop4" />
			<stop
   offset="0.12"
   stop-color="#d7d7d7"
   stop-opacity="1"
   id="stop6" />
			<stop
   offset="0.42"
   stop-color="#ebebeb"
   stop-opacity="1"
   id="stop8" />
			<stop
   offset="0.72"
   stop-color="#f8f8f8"
   stop-opacity="1"
   id="stop10" />
			<stop
   offset="1"
   stop-color="#fcfcfc"
   stop-opacity="1"
   id="stop12" />
		</linearGradient>
		<linearGradient
   id="grad0-20"
   x1="0"
   y1="117.35471"
   x2="11.33858"
   y2="117.35471"
   gradientUnits="userSpaceOnUse">
			<stop
   offset="0"
   stop-color="#cccccc"
   stop-opacity="1"
   id="stop15" />
			<stop
   offset="0.12"
   stop-color="#d7d7d7"
   stop-opacity="1"
   id="stop17" />
			<stop
   offset="0.42"
   stop-color="#ebebeb"
   stop-opacity="1"
   id="stop19" />
			<stop
   offset="0.72"
   stop-color="#f8f8f8"
   stop-opacity="1"
   id="stop21" />
			<stop
   offset="1"
   stop-color="#fcfcfc"
   stop-opacity="1"
   id="stop23" />
		</linearGradient>
		<linearGradient
   id="grad0-24"
   x1="0"
   y1="0"
   x2="1"
   y2="0"
   gradientTransform="rotate(-90.422255,0.5,0.5)">
			<stop
   offset="0"
   stop-color="#cccccc"
   stop-opacity="1"
   id="stop26" />
			<stop
   offset="0.12"
   stop-color="#d7d7d7"
   stop-opacity="1"
   id="stop28" />
			<stop
   offset="0.42"
   stop-color="#ebebeb"
   stop-opacity="1"
   id="stop30" />
			<stop
   offset="0.72"
   stop-color="#f8f8f8"
   stop-opacity="1"
   id="stop32" />
			<stop
   offset="1"
   stop-color="#fcfcfc"
   stop-opacity="1"
   id="stop34" />
		</linearGradient>
	<linearGradient
   inkscape:collect="always"
   xlink:href="#grad0-24"
   id="linearGradient4607"
   x1="0"
   y1="117.35471"
   x2="11.33858"
   y2="117.35471"
   gradientUnits="userSpaceOnUse" /><linearGradient
   inkscape:collect="always"
   xlink:href="#grad0-24"
   id="linearGradient4609"
   x1="0"
   y1="117.35471"
   x2="11.33858"
   y2="117.35471"
   gradientUnits="userSpaceOnUse" /></defs>
	<g
   id="g91"
   transform="translate(-36,-36)">
		<title
   id="title38">Page-1</title>
		<g
   id="group13662-1"
   transform="translate(36,-36)">
			<title
   id="title40">Web PubSub Service.13662</title>
			<g
   id="group13663-2">
				<title
   id="title42">g24</title>
				<g
   id="shape13664-3">
					<title
   id="title44">path4</title>
					<path
   d="M 0,75.78 C 0,73.69 1.69,72 3.78,72 h 49.13 c 2.09,0 3.78,1.69 3.78,3.78 v 49.13 c 0,2.09 -1.69,3.78 -3.78,3.78 H 3.78 C 1.69,128.69 0,127 0,124.91 Z"
   class="st1"
   id="path46"
   inkscape:connector-curvature="0"
   style="fill:#0078d7;stroke:none;stroke-width:36;stroke-linecap:butt" />
				</g>
				<g
   id="shape13665-5">
					<title
   id="title49">path6</title>
					<path
   d="M 30.24,98.46 V 72 H 26.46 V 98.46 H 0 v 3.78 h 26.46 v 26.45 h 3.78 v -26.45 h 26.45 v -3.78 z"
   class="st2"
   id="path51"
   inkscape:connector-curvature="0"
   style="fill:#ffffff;fill-opacity:0.8;stroke:none;stroke-width:36;stroke-linecap:butt" />
				</g>
				<g
   id="shape13666-7"
   transform="translate(11.3386,-11.3386)">
					<title
   id="title54">path8</title>
					<path
   d="M 0,128.69 V 94.68 h 3.78 v 34.01 z"
   class="st3"
   id="path56"
   inkscape:connector-curvature="0"
   style="fill:#ffffff;stroke:none;stroke-width:36;stroke-linecap:butt" />
				</g>
				<g
   id="shape13667-9"
   transform="translate(12.8353,-12.8353)">
					<title
   id="title59">path10</title>
					<path
   d="m 0,100.35 2.68,-2.68 28.34,28.35 -2.67,2.67 z"
   class="st3"
   id="path61"
   inkscape:connector-curvature="0"
   style="fill:#ffffff;stroke:none;stroke-width:36;stroke-linecap:butt" />
				</g>
				<g
   id="shape13668-11"
   transform="translate(15.1181,-41.5748)">
					<title
   id="title64">path12</title>
					<path
   d="M 30.24,128.69 H 0 v -3.78 h 30.24 z"
   class="st3"
   id="path66"
   inkscape:connector-curvature="0"
   style="fill:#ffffff;stroke:none;stroke-width:36;stroke-linecap:butt" />
				</g>
				<g
   id="shape13669-13"
   transform="translate(3.77953,-34.0157)">
					<title
   id="title69">circle14</title>
					<circle
   cx="9.4488201"
   cy="119.244"
   class="st4"
   id="ellipse71"
   r="9.4488201"
   style="fill:url(#grad0-16);stroke:none;stroke-width:36;stroke-linecap:butt" />
				</g>
				<g
   id="shape13670-17"
   transform="translate(37.7953,-37.7953)">
					<title
   id="title74">circle16</title>
					<circle
   cx="5.6692901"
   cy="123.024"
   class="st5"
   id="ellipse76"
   r="5.6692901"
   style="fill:url(#grad0-20);stroke:none;stroke-width:36;stroke-linecap:butt" />
				</g>
				<g
   id="shape13671-21"
   transform="translate(7.55906,-7.55906)">
					<title
   id="title79">circle18</title>
					<circle
   cx="5.6692901"
   cy="123.024"
   class="st6"
   id="ellipse81"
   r="5.6692901"
   style="fill:url(#linearGradient4607);stroke:none;stroke-width:36;stroke-linecap:butt" />
				</g>
				<g
   id="shape13672-25"
   transform="translate(37.7953,-7.55906)">
					<title
   id="title84">circle20</title>
					<circle
   cx="5.6692901"
   cy="123.024"
   class="st6"
   id="ellipse86"
   r="5.6692901"
   style="fill:url(#linearGradient4609);stroke:none;stroke-width:36;stroke-linecap:butt" />
				</g>
			</g>
		</g>
	</g>
</svg>

<?xml version="1.0" encoding="UTF-8" standalone="no"?>
<!DOCTYPE svg PUBLIC "-//W3C//DTD SVG 1.1//EN" "http://www.w3.org/Graphics/SVG/1.1/DTD/svg11.dtd">
<!-- Generated by Microsoft Visio, SVG Export Web PubSub Service.svg Page-1 -->
<svg xmlns="http://www.w3.org/2000/svg" xmlns:xlink="http://www.w3.org/1999/xlink" xmlns:ev="http://www.w3.org/2001/xml-events"
		width="1.7874in" height="1.7874in" viewBox="0 0 128.693 128.693" xml:space="preserve" color-interpolation-filters="sRGB"
		class="st7">
	<style type="text/css">
	<![CDATA[
		.st1 {fill:#0078d7;stroke:none;stroke-linecap:butt;stroke-width:36}
		.st2 {fill:#ffffff;fill-opacity:0.8;stroke:none;stroke-linecap:butt;stroke-width:36}
		.st3 {fill:#ffffff;stroke:none;stroke-linecap:butt;stroke-width:36}
		.st4 {fill:url(#grad0-16);stroke:none;stroke-linecap:butt;stroke-width:36}
		.st5 {fill:url(#grad0-20);stroke:none;stroke-linecap:butt;stroke-width:36}
		.st6 {fill:url(#grad0-24);stroke:none;stroke-linecap:butt;stroke-width:36}
		.st7 {fill:none;fill-rule:evenodd;font-size:12px;overflow:visible;stroke-linecap:square;stroke-miterlimit:3}
	]]>
	</style>

	<defs id="Patterns_And_Gradients">
		<linearGradient id="grad0-16" x1="0" y1="0" x2="1" y2="0" gradientTransform="rotate(-90.427690714361 0.5 0.5)">
			<stop offset="0" stop-color="#cccccc" stop-opacity="1"/>
			<stop offset="0.12" stop-color="#d7d7d7" stop-opacity="1"/>
			<stop offset="0.42" stop-color="#ebebeb" stop-opacity="1"/>
			<stop offset="0.72" stop-color="#f8f8f8" stop-opacity="1"/>
			<stop offset="1" stop-color="#fcfcfc" stop-opacity="1"/>
		</linearGradient>
		<linearGradient id="grad0-20" x1="0" y1="0" x2="1" y2="0" gradientTransform="rotate(-90.422449705064 0.5 0.5)">
			<stop offset="0" stop-color="#cccccc" stop-opacity="1"/>
			<stop offset="0.12" stop-color="#d7d7d7" stop-opacity="1"/>
			<stop offset="0.42" stop-color="#ebebeb" stop-opacity="1"/>
			<stop offset="0.72" stop-color="#f8f8f8" stop-opacity="1"/>
			<stop offset="1" stop-color="#fcfcfc" stop-opacity="1"/>
		</linearGradient>
		<linearGradient id="grad0-24" x1="0" y1="0" x2="1" y2="0" gradientTransform="rotate(-90.422255124499 0.5 0.5)">
			<stop offset="0" stop-color="#cccccc" stop-opacity="1"/>
			<stop offset="0.12" stop-color="#d7d7d7" stop-opacity="1"/>
			<stop offset="0.42" stop-color="#ebebeb" stop-opacity="1"/>
			<stop offset="0.72" stop-color="#f8f8f8" stop-opacity="1"/>
			<stop offset="1" stop-color="#fcfcfc" stop-opacity="1"/>
		</linearGradient>
	</defs>
	<g>
		<title>Page-1</title>
		<g id="group13315-1" transform="translate(36,-36)">
			<title>Web PubSub Service.13315</title>
			<g id="group13316-2">
				<title>g24</title>
				<g id="shape13317-3">
					<title>path4</title>
					<path d="M0 75.78 C0 73.69 1.69 72 3.78 72 L52.91 72 C55 72 56.69 73.69 56.69 75.78 L56.69 124.91 C56.69 127
								 55 128.69 52.91 128.69 L3.78 128.69 C1.69 128.69 0 127 0 124.91 L0 75.78 Z" class="st1"/>
				</g>
				<g id="shape13318-5">
					<title>path6</title>
					<path d="M30.24 98.46 L30.24 72 L26.46 72 L26.46 98.46 L0 98.46 L0 102.24 L26.46 102.24 L26.46 128.69 L30.24
								 128.69 L30.24 102.24 L56.69 102.24 L56.69 98.46 L30.24 98.46 Z" class="st2"/>
				</g>
				<g id="shape13319-7" transform="translate(11.3386,-11.3386)">
					<title>path8</title>
					<path d="M0 128.69 L0 94.68 L3.78 94.68 L3.78 128.69 L0 128.69 Z" class="st3"/>
				</g>
				<g id="shape13320-9" transform="translate(12.8353,-12.8353)">
					<title>path10</title>
					<path d="M0 100.35 L2.68 97.67 L31.02 126.02 L28.35 128.69 L0 100.35 L0 100.35 Z" class="st3"/>
				</g>
				<g id="shape13321-11" transform="translate(15.1181,-41.5748)">
					<title>path12</title>
					<path d="M30.24 128.69 L0 128.69 L0 124.91 L30.24 124.91 L30.24 128.69 Z" class="st3"/>
				</g>
				<g id="shape13322-13" transform="translate(3.77953,-34.0157)">
					<title>circle14</title>
					<ellipse cx="9.44882" cy="119.244" rx="9.44882" ry="9.44882" class="st4"/>
				</g>
				<g id="shape13323-17" transform="translate(37.7953,-37.7953)">
					<title>circle16</title>
					<ellipse cx="5.66929" cy="123.024" rx="5.66929" ry="5.66929" class="st5"/>
				</g>
				<g id="shape13324-21" transform="translate(7.55906,-7.55906)">
					<title>circle18</title>
					<ellipse cx="5.66929" cy="123.024" rx="5.66929" ry="5.66929" class="st6"/>
				</g>
				<g id="shape13325-25" transform="translate(37.7953,-7.55906)">
					<title>circle20</title>
					<ellipse cx="5.66929" cy="123.024" rx="5.66929" ry="5.66929" class="st6"/>
				</g>
			</g>
		</g>
	</g>
</svg>
